X: 362
T: Fishers Hornpipe
R: hornpipe, reel
M: C
L: 1/8
Z: 2012 John Chambers <jc:trillian.mit.edu>
B: J. Anderson "Budget of Strathspeys, Reels and Country Dances" (Early 1800s) p.36 #2
F: http://imslp.org/wiki/Anderson%27s_Budget_of_Strathspeys,_Reels_and_Country_Dances_(Various)
N: 2nd part has initial repeat but no final repeat; fixed.
K: G
|:\
(gd).B.d (ce).d.c | (Bd).B.d ce.d.c | .B.G.B.G .c.A.c.A | .B.G.B.G (AF)ED |
(gd).B.d (ce).d.c | (Bd).B.d (ce).d.c | (dg).e.c' (ba).g.f | .g2.g2 g4 :|
|:\
afdf afc'a | bgdg bgd'b | afdf afc'a | bgfe d2((3Bcd) |
(ec).G.c (ec).g.e | (dB).G.B (dB).g.e | (dB).g.e | (dB).c.A | .G2.G2 G4 :|

%%sep 2 1 500
%%sep 1 1 500

